X:1
T:Lead Me, Savior
T:Frank Marion Davis, 1880
T:Lead Me, Savior
T:Public Domain
T:Public Domain
C:Frank Marion Davis, 1880
Z:Public Domain
%%score ( 1 2 ) ( 3 4 )
L:1/8
M:4/4
K:Db
V:1 treble 
V:2 treble 
V:3 bass 
V:4 bass 
V:1
 [FA]3 [DF] [FA][Bd][Ac][GB] | (FFGG F4) | [EG]3 [DF] [CE][GB][FA][EG] | (DDDD D4) | %4
w: 1.~Sav- ior, lead me, lest I|stray, * * * *|ly lead me all the way;|I * * * *|
w: 2.~Thou the ref- uge of my|soul * * * *|life’s storm- y bil- lows roll;|I * * * *|
w: 3.~Sav- ior, lead me, then at|last, * * * *|the storm of life is past,|To * * * *|
 [FA]3 [FA] [FA][DF][FA][Fd] | (GGGG G4) | [Ec]3 [Fd] [Ec][DB][CA][B,=G] | (CDEF G4) || %8
w: safe when by Thy side, I|would * * * *|Thy love a- bide. * *||
w: safe when Thou art nigh, All|my * * * *|on Thee re- ly. Lead me,|lead * * * *|
w: land of end- less day, Where|all * * * *|are wiped a- way. * *||
"^Refrain" [FA]4 [DF]2 z2 | [Fd]4 [FA]2 z2 | [Af]3 [Ae] [Ad][GB][FA][DF] | ([CE]3 [DF] [EG]4) | %12
w: ||||
w: Sav- ior,|lead me|lest I stray; Gent- ly down|the * *|
w: ||||
 [DF]3 [DF] [DF][DF][CG][DA] | [GB]6 [=Ec][Ed] | [FA]2 [DF]2 [EG]2 [A,C]2 | (A,2 B,B, A,4) |] %16
w: ||||
w: stream of time, Lead me, Sav-|ior, all the|way. * * *||
w: ||||
V:2
 x8 | A6 x2 | x8 | F6 x2 | x8 | B6 x2 | x8 | A6 x2 || x8 | x8 | x8 | x8 | x8 | x8 | x8 | D6 x2 |] %16
w: |Gent-||am||in|||||||||||
w: |When||am||hopes||me,|||||||||
w: |When||the||tears|||||||||||
V:3
 [D,D]4 [D,D]4 | ([D,D][D,D][C,E][C,E] [D,D]4) | A,4 [A,,A,]4 | %3
 ([D,A,][D,A,][D,A,][D,A,] [D,A,]4) | [D,D]4 [D,D]4 | ([G,D][G,D][G,D][G,D] [G,D]4) | %6
 A,4 (=G,2 A,)B, | ([A,,A,][A,,B,][A,,C][A,,D] [A,,E]4) || [D,D]4 [D,A,]2 z2 | [D,A,]4 [D,D]2 z2 | %10
 z2 D[A,C] [F,D][D,D][D,D][D,A,] | ([A,,A,]2 [A,,A,][A,,A,] [A,,C]4) | %12
 z2 [D,A,][D,A,] [D,A,][D,A,][E,A,][F,D] | [G,D]2 [G,D][G,D] [G,D]2 [=G,D][G,D] | %14
 [A,D]2 A,2 [A,,A,]2 [A,,G,]2 | (F,2 G,G, F,4) |] %16
V:4
 x8 | x8 | A,4 x4 | x8 | x8 | x8 | A,4 E,4 | x8 || x8 | x8 | x2 D x5 | x8 | x8 | x8 | x2 A,2 x4 | %15
 D,6 x2 |] %16

